!!!OTL: JAMMER JAMMER UEBER JAMMER
!!!ARE: Europa, Mitteleuropa, Deutschland, Bergisches Land, Mettmann
!!!SCT: E1882
!!!YEM: Copyright 1995, estate of Helmut Schaffrath.
**kern
*ICvox
*Ivox
!! Mixed meters:  3/4; 2/4
*M3/4
*k[]
*C:
{8c
8d
=1
4e
4e
8f
8e
=2
*M2/4
4d
4d}
=3
{8e
8d
=4
*M3/4
4c
4e
8d
8d
=5
*M2/4
4c
4r}
=6
{8c
8d
=7
*M3/4
4e
4e
8f
8e
=8
*M2/4
4d
4d}
=9
{8e
8d
=10
*M3/4
4c
4e
8d
8d
=11
*M2/4
4c
4r}
=12
{8c
8d
=13
*M3/4
4e
4e
8f
8e
=14
*M2/4
4d
4d}
=15
{8e
8d
=16
*M3/4
4c
4e
8d
8d
=17
*M2/4
4c
4r}
=18
{4e
8c
8e
=19
8d
8d
8c
8r}
=20
{4e
8c
8e
=21
8d
8d
8c
8r}
=22
{8e
8e
8c
8e
=23
4d
8c
8r}
=24
{8e
8e
8c
8e
=25
4d
8c
8r}
=26
{8g
8g
4cc
=27
8g
8g
4cc}
=28
{8g
8f
8e
8d
=29
8d
8c
4c}
==
!!!AGN: Kinder - Lied, Tanz, Ringelreihen
!!!ONB: ESAC (Essen Associative Code) Database: ERK3
!!!AMT: irregular
!!!AIN: vox
!!!EED: Helmut Schaffrath
!!!EEV: 1.0
*-
